X: 23
T: Trip to Gunning Hill Wells
%R: jig
B: Stewart "A Select Collection of Airs, Jigs, Marches and Reels", ca.1784, p.11 #23
F: http://imslp.org/wiki/A_Select_Collection_of_Airs,_Jigs,_Marches_and_Reels_%28Various%29
Z: 2017 John Chambers <jc:trillian.mit.edu>
M: 6/8
L: 1/8
K: D
A |\
dfa dfa | dcd ecA | dfa efg | fdd d2 ::\
f/g/ |\
aba gag | fdf ecA | aba geg | fdd d2 :|

%%sep 1 1 500
%%sep 1 1 500

